X:035
T:Walter Bulwer's No 1
M:4/4
L:1/8
K:D
FG | AGFA d3c | B2E2E4 | GFEG c2B2 | A2F2F3G | 
AGFA d3c | B2E2E2D2 | CDEF GABc | d4d2 || 
K:G
Bc | d2Bc d2Bc | dcB2 A4 | A2d2cB A2 | GFGA BABc | 
d2Bc d2Bc | dcB2 A4 | A2d2cB A2 | G4G2 || 

